X: 540
T: Diao xianxian
%%abc-version 2.0
%%abcx-abcm2ps-target-version 5.9.1 (29 Sep 2008)
%%abc-creator hum2abc beta
%%abcx-conversion-date 2013/10/02 07:52:30
%%abc-edited-by Helmut Schaffrath
%%humdrum-veritas 1950132580
%%humdrum-veritas-data 322970662
%%continueall 1
%%barnumbers 0
L: 1/8
M: 2/4
K: Eb
f> g f e [I:setbarnb 1]| 
g> f g f/ e/ | 
c> ef2 | 
g g f e/ e/ | 
e e/ c/B2 | 
B c e3/ f/ | 
e c/ G< B c/ | 
e GF2 | 
e Bc2 | 
E F G B | 
G FE2 |]  



